X:60
T: SOHN DA HAST DU MEINEN SPEER
N: B0081
O: Europa, Mitteleuropa, Deutschland
R: Helden -, Ehren -, Gedaechtnis -, Kriegs - Lied
M: 4/4
L: 1/16
K: D
 | D6D2D3DF2D2 | A8z8
A6A2^G2A2B2A2 | F8z8
A6F2D2F2A2d2 | c4B4z4
G2B2 | B6A2A6G2 | G4F4z8
A6B2c2d2e2d2 | c4B4z4
G2B2 | B6A2A6C2 | D8z8

